contributed-vectors/pentobi.svg

<svg width="192" height="192" version="1.1" viewBox="0 0 192 192" xmlns="http://www.w3.org/2000/svg">
 <path d="m29.936 20c-5.5038 0-9.9355 4.4318-9.9355 9.9355v132.13c0 5.5038 4.4318 9.9356 9.9355 9.9356h132.13c5.5038 0 9.9356-4.4318 9.9356-9.9356v-132.13c0-5.5038-4.4318-9.9355-9.9356-9.9355h-132.13z" style="fill:#ff837d;paint-order:stroke fill markers;stroke-width:.95"/>
 <path d="m58 96v38h38v38h66.064c5.5038 0 9.9356-4.4318 9.9356-9.9356v-28.064h-38v-38h-76z" style="fill:#9abeff;paint-order:stroke fill markers;stroke-width:.95"/>
 <path d="m20 58v104.06c0 5.5038 4.4318 9.9356 9.9355 9.9356h28.064 38v-38h-38v-76h-38z" style="fill:#f9de81;paint-order:stroke fill markers;stroke-width:.95"/>
 <path d="m96 20v38h38v76h38v-104.06c0-5.5038-4.4318-9.9355-9.9356-9.9355h-66.064z" style="fill:#98dc9a;paint-order:stroke fill markers;stroke-width:.95"/>
 <path d="m58 96 7.6-7.6h22.8v-22.8l7.6-7.6v38z" style="fill:#ba6561;stroke-width:.95"/>
 <path d="m96 58-7.6 7.6h-22.8v22.8l-7.6 7.6v-38z" style="fill:#fff;opacity:.25;stroke-width:.95"/>
 <path d="m20 96 7.6-7.6h22.8v-22.8l7.6-7.6v38z" style="fill:#c39a54;stroke-width:.95"/>
 <path d="m58 58-7.6 7.6h-22.8v22.8l-7.6 7.6v-38z" style="fill:#fff;opacity:.25;stroke-width:.95"/>
 <path d="m58 58 7.6-7.6h22.8v-22.8l7.6-7.6v38z" style="fill:#ba6561;stroke-width:.95"/>
 <path d="m96 20-7.6 7.6h-22.8v22.8l-7.6 7.6v-38z" style="fill:#fff;opacity:.25;stroke-width:.95"/>
 <path d="m20 58 7.6-7.6h22.8v-22.8l7.6-7.6v38z" style="fill:#ba6561;stroke-width:.95"/>
 <path d="m29.936 20c-5.5038 0-9.9355 4.4318-9.9355 9.9355v28.064l7.5996-7.5996v-22.801h22.801l7.5996-7.5996h-28.064z" style="fill:#fff;opacity:.25;stroke-width:.95"/>
 <path d="m169.1 22.904-4.6953 4.6953v22.801h-22.801l-7.5996 7.5996h38v-28.064c0-2.7519-1.1086-5.2356-2.9043-7.0312z" style="fill:#71a372;stroke-width:.95"/>
 <path d="m134 20v38l7.5996-7.5996v-22.801h22.801l4.6953-4.6953c-1.7957-1.7957-4.2794-2.9043-7.0312-2.9043h-28.064z" style="fill:#fff;opacity:.25;stroke-width:.95"/>
 <path d="m96 58 7.6-7.6h22.8v-22.8l7.6-7.6v38z" style="fill:#71a372;stroke-width:.95"/>
 <path d="m134 20-7.6 7.6h-22.8v22.8l-7.6 7.6v-38z" style="fill:#fff;opacity:.25;stroke-width:.95"/>
 <path d="m58 134 7.6-7.6h22.8v-22.8l7.6-7.6v38z" style="fill:#728dbe;stroke-width:.95"/>
 <path d="m96 96-7.6 7.6h-22.8v22.8l-7.6 7.6v-38z" style="fill:#fff;opacity:.25;stroke-width:.95"/>
 <path d="m20 134 7.6-7.6h22.8v-22.8l7.6-7.6v38z" style="fill:#c39a54;stroke-width:.95"/>
 <path d="m58 96-7.6 7.6h-22.8v22.8l-7.6 7.6v-38z" style="fill:#fff;opacity:.25;stroke-width:.95"/>
 <path d="m172 134-7.5996 7.5996v22.801h-22.801l-7.5996 7.5996h28.064c5.5038 0 9.9356-4.4318 9.9356-9.9356v-28.064z" style="fill:#728dbe;stroke-width:.95"/>
 <path d="m172 134-7.6 7.6h-22.8v22.8l-7.6 7.6v-38z" style="fill:#fff;opacity:.25;stroke-width:.95"/>
 <path d="m96 172 7.6-7.6h22.8v-22.8l7.6-7.6v38z" style="fill:#728dbe;stroke-width:.95"/>
 <path d="m134 134-7.6 7.6h-22.8v22.8l-7.6 7.6v-38z" style="fill:#fff;opacity:.25;stroke-width:.95"/>
 <path d="m58 172 7.6-7.6h22.8v-22.8l7.6-7.6v38z" style="fill:#c39a54;stroke-width:.95"/>
 <path d="m96 134-7.6 7.6h-22.8v22.8l-7.6 7.6v-38z" style="fill:#fff;opacity:.25;stroke-width:.95"/>
 <path d="m58 134-7.5996 7.5996v22.801h-22.801l-4.6953 4.6953c1.7957 1.7957 4.2794 2.9043 7.0312 2.9043h28.064v-38z" style="fill:#c39a54;stroke-width:.95"/>
 <path d="m20 134v28.064c0 2.7519 1.1086 5.2356 2.9043 7.0312l4.6953-4.6953v-22.801h22.801l7.5996-7.5996h-38z" style="fill:#fff;opacity:.25;stroke-width:.95"/>
 <path d="m134 96 7.6-7.6h22.8v-22.8l7.6-7.6v38z" style="fill:#71a372;stroke-width:.95"/>
 <path d="m172 58-7.6 7.6h-22.8v22.8l-7.6 7.6v-38z" style="fill:#fff;opacity:.25;stroke-width:.95"/>
 <path d="m96 96 7.6-7.6h22.8v-22.8l7.6-7.6v38z" style="fill:#ba6561;stroke-width:.95"/>
 <path d="m134 58-7.6 7.6h-22.8v22.8l-7.6 7.6v-38z" style="fill:#fff;opacity:.25;stroke-width:.95"/>
 <path d="m134 134 7.6-7.6h22.8v-22.8l7.6-7.6v38z" style="fill:#71a372;stroke-width:.95"/>
 <path d="m172 96-7.6 7.6h-22.8v22.8l-7.6 7.6v-38z" style="fill:#fff;opacity:.25;stroke-width:.95"/>
 <path d="m96 134 7.6-7.6h22.8v-22.8l7.6-7.6v38z" style="fill:#728dbe;stroke-width:.95"/>
 <path d="m134 96-7.6 7.6h-22.8v22.8l-7.6 7.6v-38z" style="fill:#fff;opacity:.25;stroke-width:.95"/>
</svg>

<svg xmlns="http://www.w3.org/2000/svg" width="192" height="192"><path d="M29.936 20a9.914 9.914 0 0 0-9.935 9.935v132.13a9.915 9.915 0 0 0 9.935 9.936h132.13a9.915 9.915 0 0 0 9.936-9.936V29.935A9.914 9.914 0 0 0 162.066 20H29.936z" style="fill:#ff837d;paint-order:stroke fill markers;stroke-width:.95"/><path d="M58 96v38h38v38h66.064a9.915 9.915 0 0 0 9.936-9.936V134h-38V96H58z" style="fill:#9abeff;paint-order:stroke fill markers;stroke-width:.95"/><path d="M20 58v104.06a9.915 9.915 0 0 0 9.935 9.936H96v-38H58v-76H20z" style="fill:#f9de81;paint-order:stroke fill markers;stroke-width:.95"/><path d="M96 20v38h38v76h38V29.94a9.914 9.914 0 0 0-9.936-9.936H96z" style="fill:#98dc9a;paint-order:stroke fill markers;stroke-width:.95"/><path d="m58 96 7.6-7.6h22.8V65.6L96 58v38z" style="fill:#ba6561;stroke-width:.95"/><path d="m96 58-7.6 7.6H65.6v22.8L58 96V58z" style="fill:#fff;opacity:.25;stroke-width:.95"/><path d="m20 96 7.6-7.6h22.8V65.6L58 58v38z" style="fill:#c39a54;stroke-width:.95"/><path d="m58 58-7.6 7.6H27.6v22.8L20 96V58z" style="fill:#fff;opacity:.25;stroke-width:.95"/><path d="m58 58 7.6-7.6h22.8V27.6L96 20v38z" style="fill:#ba6561;stroke-width:.95"/><path d="m96 20-7.6 7.6H65.6v22.8L58 58V20z" style="fill:#fff;opacity:.25;stroke-width:.95"/><path d="m20 58 7.6-7.6h22.8V27.6L58 20v38z" style="fill:#ba6561;stroke-width:.95"/><path d="M29.936 20a9.914 9.914 0 0 0-9.935 9.935V58l7.6-7.6V27.6h22.8l7.6-7.6H29.937z" style="fill:#fff;opacity:.25;stroke-width:.95"/><path d="m169.1 22.904-4.695 4.695V50.4h-22.801l-7.6 7.6h38V29.936a9.904 9.904 0 0 0-2.904-7.031z" style="fill:#71a372;stroke-width:.95"/><path d="M134 20v38l7.6-7.6V27.6h22.8l4.696-4.696A9.904 9.904 0 0 0 162.065 20H134z" style="fill:#fff;opacity:.25;stroke-width:.95"/><path d="m96 58 7.6-7.6h22.8V27.6L134 20v38z" style="fill:#71a372;stroke-width:.95"/><path d="m134 20-7.6 7.6h-22.8v22.8L96 58V20z" style="fill:#fff;opacity:.25;stroke-width:.95"/><path d="m58 134 7.6-7.6h22.8v-22.8L96 96v38z" style="fill:#728dbe;stroke-width:.95"/><path d="m96 96-7.6 7.6H65.6v22.8L58 134V96z" style="fill:#fff;opacity:.25;stroke-width:.95"/><path d="m20 134 7.6-7.6h22.8v-22.8L58 96v38z" style="fill:#c39a54;stroke-width:.95"/><path d="m58 96-7.6 7.6H27.6v22.8L20 134V96z" style="fill:#fff;opacity:.25;stroke-width:.95"/><path d="m172 134-7.6 7.6v22.8h-22.8L134 172h28.064a9.915 9.915 0 0 0 9.935-9.935V134z" style="fill:#728dbe;stroke-width:.95"/><path d="m172 134-7.6 7.6h-22.8v22.8L134 172v-38z" style="fill:#fff;opacity:.25;stroke-width:.95"/><path d="m96 172 7.6-7.6h22.8v-22.8l7.6-7.6v38z" style="fill:#728dbe;stroke-width:.95"/><path d="m134 134-7.6 7.6h-22.8v22.8L96 172v-38z" style="fill:#fff;opacity:.25;stroke-width:.95"/><path d="m58 172 7.6-7.6h22.8v-22.8L96 134v38z" style="fill:#c39a54;stroke-width:.95"/><path d="m96 134-7.6 7.6H65.6v22.8L58 172v-38z" style="fill:#fff;opacity:.25;stroke-width:.95"/><path d="m58 134-7.6 7.6v22.8H27.6l-4.696 4.696A9.904 9.904 0 0 0 29.935 172H58v-38z" style="fill:#c39a54;stroke-width:.95"/><path d="M20 134v28.064a9.904 9.904 0 0 0 2.904 7.031L27.6 164.4v-22.801h22.8l7.6-7.6H20z" style="fill:#fff;opacity:.25;stroke-width:.95"/><path d="m134 96 7.6-7.6h22.8V65.6L172 58v38z" style="fill:#71a372;stroke-width:.95"/><path d="m172 58-7.6 7.6h-22.8v22.8L134 96V58z" style="fill:#fff;opacity:.25;stroke-width:.95"/><path d="m96 96 7.6-7.6h22.8V65.6L134 58v38z" style="fill:#ba6561;stroke-width:.95"/><path d="m134 58-7.6 7.6h-22.8v22.8L96 96V58z" style="fill:#fff;opacity:.25;stroke-width:.95"/><path d="m134 134 7.6-7.6h22.8v-22.8L172 96v38z" style="fill:#71a372;stroke-width:.95"/><path d="m172 96-7.6 7.6h-22.8v22.8L134 134V96z" style="fill:#fff;opacity:.25;stroke-width:.95"/><path d="m96 134 7.6-7.6h22.8v-22.8L134 96v38z" style="fill:#728dbe;stroke-width:.95"/><path d="m134 96-7.6 7.6h-22.8v22.8L96 134V96z" style="fill:#fff;opacity:.25;stroke-width:.95"/></svg>
